X: 1867
T:Jump at the Sun (Dm)
M:6/8
L:1/8
C:John Kirkpatrick, via EF
S:Nottingham Music Database
K:Dm
F/2E/2|DFA ^G2A|DFA ^G2A|dAA dAA|!
AGF E2F|DFA ^G2A|DFA ^G2A|dAA BAG|FGE D2:|!
dAA fed|eAA gfe|fed fed|ecA B2A|!
dAA fed|fed fed|dAA BAG|FGE D2:|!
